src/dsmComponents/Icons/car-driving-24px.svg

<?xml version="1.0" encoding="UTF-8"?>
<svg width="24px" height="19px" viewBox="0 0 24 19" version="1.1" xmlns="http://www.w3.org/2000/svg" xmlns:xlink="http://www.w3.org/1999/xlink">
    <!-- Generator: Sketch 59.1 (86144) - https://sketch.com -->
    <title>car-driving-24px</title>
    <desc>Created with Sketch.</desc>
    <defs>
        <path d="M18.689,12.935 C17.849,12.935 17.168,12.254 17.168,11.415 C17.168,10.575 17.849,9.894 18.689,9.894 C19.529,9.894 20.21,10.575 20.21,11.415 C20.21,12.254 19.529,12.935 18.689,12.935 M5.313,12.935 C4.473,12.935 3.793,12.254 3.793,11.415 C3.793,10.575 4.473,9.894 5.313,9.894 C6.153,9.894 6.834,10.575 6.834,11.415 C6.834,12.254 6.153,12.935 5.313,12.935 M3.934,6.557 L5.724,2.112 C5.924,1.614 6.521,1.206 7.048,1.206 L16.954,1.206 C17.482,1.206 18.078,1.614 18.278,2.112 L20.068,6.557 C20.268,7.055 20.001,7.462 19.472,7.462 L4.53,7.462 C4.001,7.462 3.734,7.055 3.934,6.557 M22.7097,15.9916 L22.7097,16.9756 C22.7097,17.6716 22.1717,18.2386 21.5107,18.2386 L21.5107,18.2386 L19.9427,18.2386 C19.2807,18.2386 18.7427,17.6716 18.7427,16.9756 L18.7427,16.9756 L18.7427,15.9916 L22.7097,15.9916 Z M5.2595,15.9916 L5.2595,16.9756 C5.2595,17.6716 4.7215,18.2386 4.0605,18.2386 L4.0605,18.2386 L2.4925,18.2386 C1.8305,18.2386 1.2925,17.6716 1.2925,16.9756 L1.2925,16.9756 L1.2925,15.9916 L5.2595,15.9916 Z M17.538,0 C18.42,0 19.412,0.699 19.747,1.558 L19.747,1.558 L20.93,4.59 L21.539,6.148 L22.981,6.148 C23.543,6.148 24,6.628 24,7.22 C24,7.812 23.543,8.291 22.981,8.291 L22.981,8.291 L22.334,8.291 C22.551,9.067 22.71,10.038 22.71,10.715 L22.71,10.715 L22.71,15.236 L18.743,15.236 L18.743,15.234 L5.259,15.234 L5.259,15.236 L1.293,15.236 L1.293,10.715 C1.293,10.037 1.451,9.067 1.668,8.291 L1.668,8.291 L1.018,8.291 C0.456,8.291 0,7.812 0,7.22 C0,6.628 0.456,6.148 1.018,6.148 L1.018,6.148 L2.464,6.148 L3.074,4.586 L4.255,1.558 C4.59,0.699 5.582,0 6.464,0 L6.464,0 Z" id="path-1"></path>
    </defs>
    <g id="Final" stroke="none" stroke-width="1" fill="none" fill-rule="evenodd">
        <g id="All-Nucleo-Icons" transform="translate(-608.000000, -1057.000000)">
            <g id="Solo/Nucleo/24px/car-driving" transform="translate(608.000000, 1054.000000)">
                <g id="driving" transform="translate(0.000000, 3.000000)">
                    <g id="Colour/Default-Colour">
                        <g>
                            <mask id="mask-2" fill="white">
                                <use xlink:href="#path-1"></use>
                            </mask>
                            <use id="Mask" fill="#000000" xlink:href="#path-1"></use>
                            <g id="colour/neutral/chia" mask="url(#mask-2)" fill="#737373">
                                <g transform="translate(-20.000000, -22.000000)" id="Colour">
                                    <rect x="0" y="0" width="64" height="64"></rect>
                                </g>
                            </g>
                        </g>
                    </g>
                </g>
            </g>
        </g>
    </g>
</svg>

<svg width="24" height="19" xmlns="http://www.w3.org/2000/svg" xmlns:xlink="http://www.w3.org/1999/xlink"><defs><path d="M18.689 12.935a1.52 1.52 0 110-3.042 1.52 1.52 0 010 3.042m-13.376 0a1.52 1.52 0 110-3.04 1.52 1.52 0 010 3.04M3.934 6.557l1.79-4.445c.2-.498.797-.906 1.324-.906h9.906c.528 0 1.124.408 1.324.906l1.79 4.445c.2.498-.067.905-.596.905H4.53c-.529 0-.796-.407-.596-.905m18.776 9.435v.984c0 .696-.538 1.263-1.2 1.263h-1.567c-.662 0-1.2-.567-1.2-1.263v-.984h3.967zm-17.45 0v.984c0 .696-.538 1.263-1.2 1.263H2.494c-.662 0-1.2-.567-1.2-1.263v-.984H5.26zM17.538 0c.882 0 1.874.699 2.209 1.558L20.93 4.59l.609 1.558h1.442c.562 0 1.019.48 1.019 1.072 0 .592-.457 1.071-1.019 1.071h-.647c.217.776.376 1.747.376 2.424v4.521h-3.967v-.002H5.259v.002H1.293v-4.521c0-.678.158-1.648.375-2.424h-.65C.456 8.291 0 7.812 0 7.22s.456-1.072 1.018-1.072h1.446l.61-1.562 1.181-3.028C4.59.699 5.582 0 6.464 0z" id="car-driving-24px_svg__a"/></defs><use fill="#737373" xlink:href="#car-driving-24px_svg__a" fill-rule="evenodd"/></svg>
